dist/svgs/unicons/line/grid.svg

<svg xmlns="http://www.w3.org/2000/svg" viewBox="0 0 24 24"><path d="M21 2H3a1 1 0 00-1 1v18a1 1 0 001 1h18a1 1 0 001-1V3a1 1 0 00-1-1zM11 20H4v-4h7zm0-6H4v-4h7zm9 6h-7v-4h7zm0-6h-7v-4h7zm0-6H4V4h16z"/></svg>

<svg xmlns="http://www.w3.org/2000/svg" viewBox="0 0 24 24"><path d="M21,2H3A1,1,0,0,0,2,3V21a1,1,0,0,0,1,1H21a1,1,0,0,0,1-1V3A1,1,0,0,0,21,2ZM11,20H4V16h7Zm0-6H4V10h7Zm9,6H13V16h7Zm0-6H13V10h7Zm0-6H4V4H20Z"/></svg>
